assets/remove_wallet.svg

<svg fill="none" height="16" viewBox="0 0 16 16" width="16" xmlns="http://www.w3.org/2000/svg"><path clip-rule="evenodd" d="m2.33953 13.6531c-3.119171-3.1192-3.119575-8.19415 0-11.31372 3.11917-3.119173 8.19457-3.119172 11.31367 0 3.1192 3.11917 3.1196 8.19412 0 11.31372-3.1191 3.1192-8.1945 3.1192-11.31367 0zm10.50637-10.50546c-2.6827-2.682755-7.01516-2.682957-9.69811 0-2.683157 2.68315-2.682955 7.01516 0 9.69816 2.68316 2.6832 7.01521 2.683 9.69821 0 2.6831-2.6832 2.6827-7.01541-.0001-9.69816zm-7.27339 1.61465-.00568-.00568c-.22312-.22312-.58483-.22351-.80834 0-.22345.22344-.22352.58483 0 .80834l.00568.00568.00031.00032 2.42431 2.4243-2.42462 2.42465-.00568.0057c-.22312.2231-.22352.5848 0 .8083.22344.2234.58482.2235.80834 0l.00599-.006 2.42431-2.4243 2.42387 2.4239.0057.0057c.2231.2231.5848.2235.8083 0s.2236-.5849 0-.8084l-.0056-.0057-.0003-.0003-2.42363-2.42355 2.42383-2.4238.0057-.00568c.2231-.22312.2235-.58483 0-.80835-.2235-.22344-.5849-.22351-.8084 0l-.006.006-2.42347 2.42349z" fill="#ff8f8f" fill-rule="evenodd"/></svg>

<svg width="16" height="16" viewBox="0 0 16 16" fill="none" xmlns="http://www.w3.org/2000/svg">
<path fill-rule="evenodd" clip-rule="evenodd" d="M2.33953 13.6531C-0.779641 10.5339 -0.780045 5.45895 2.33953 2.33938C5.4587 -0.779793 10.5341 -0.779792 13.6532 2.33938C16.7724 5.45855 16.7728 10.5335 13.6532 13.6531C10.5341 16.7723 5.4587 16.7723 2.33953 13.6531ZM12.8459 3.14764C10.1632 0.464885 5.83074 0.464683 3.14779 3.14764C0.464633 5.83079 0.464835 10.1628 3.14779 12.8458C5.83095 15.529 10.163 15.5288 12.846 12.8458C15.5291 10.1626 15.5287 5.83039 12.8459 3.14764ZM5.57251 4.76229L5.56683 4.75661C5.34371 4.53349 4.982 4.5331 4.75849 4.75661C4.53504 4.98005 4.53497 5.34144 4.75849 5.56495L4.76417 5.57063L4.76448 5.57095L7.18879 7.99525L4.76417 10.4199L4.75849 10.4256C4.53537 10.6487 4.53497 11.0104 4.75849 11.2339C4.98193 11.4573 5.34331 11.4574 5.56683 11.2339L5.57282 11.2279L7.99713 8.8036L10.421 11.2275L10.4267 11.2332C10.6498 11.4563 11.0115 11.4567 11.235 11.2332C11.4585 11.0097 11.4586 10.6483 11.235 10.4248L11.2294 10.4191L11.2291 10.4188L8.80547 7.99525L11.2293 5.57145L11.235 5.56577C11.4581 5.34265 11.4585 4.98094 11.235 4.75742C11.0115 4.53398 10.6501 4.53391 10.4266 4.75742L10.4206 4.76342L7.99713 7.18691L5.57251 4.76229Z" fill="#FF8F8F"/>
</svg>
